packages/core/src/svgs/sov.svg

<svg width="24" height="24" viewBox="0 0 24 24" fill="none" xmlns="http://www.w3.org/2000/svg">
<g clip-path="url(#clip0_31_19041)">
<path d="M0 0H24V24H0V0Z" fill="url(#paint0_linear_31_19041)"/>
<path d="M9.08568 11.5541C9.22282 10.5212 9.53568 9.47979 10.4614 8.89693C10.7452 8.71466 11.0685 8.60298 11.4043 8.57122H16.8171L17.5757 7.5255C17.6229 7.46393 17.6519 7.39039 17.6594 7.31319C17.667 7.23599 17.6528 7.15821 17.6185 7.08865C17.5842 7.01909 17.531 6.96052 17.4652 6.91958C17.3993 6.87863 17.3233 6.85693 17.2457 6.85693H6.50568C6.42425 6.85693 6.32996 6.88265 6.26139 6.94265C6.17349 7.00913 6.11524 7.10749 6.09921 7.21653C6.08317 7.32556 6.11064 7.43653 6.17568 7.5255L9.08568 11.5712H12.24C12.45 11.5841 12.6557 11.6141 12.8485 11.6826L12.9985 11.7169C13.1614 11.7469 13.3114 11.7769 13.4271 11.9012C13.5009 11.9956 13.5522 12.1055 13.5771 12.2226C13.6071 12.3212 13.6071 12.4326 13.6071 12.5441C13.6071 12.6641 13.5943 12.7798 13.5814 12.8955L13.5643 13.0584L16.0328 9.85693H11.8971C11.6057 9.85693 11.3743 9.35979 11.3743 9.06836V8.99979C11.1128 8.98693 10.8471 9.04265 10.6157 9.13693C10.3371 9.2655 10.0928 9.43265 9.89997 9.66836C9.46491 10.2129 9.18373 10.864 9.08568 11.5541ZM12.24 12.4284H9.83996L10.8771 13.9026L10.89 13.9198C10.89 13.9241 10.89 13.9284 10.8985 13.9326L10.9028 13.9455L11.07 14.1684L11.5671 14.8498L11.6485 14.9355C11.7368 15.0003 11.8471 15.0277 11.9554 15.0116C12.0638 14.9956 12.1614 14.9374 12.2271 14.8498L12.75 14.1426L13.3843 13.2941L13.5514 13.0712C13.5385 12.8912 13.5214 12.7112 13.4957 12.5441C13.4808 12.3624 13.3964 12.1935 13.26 12.0726C13.1228 11.9741 12.96 11.9012 12.78 11.9012H12.7628V11.9741C12.7628 12.2655 12.5314 12.4284 12.24 12.4284ZM11.5114 15.6426L9.24854 12.5012L8.47711 11.4298L5.16854 6.85693H5.14282L7.44425 11.4298L7.98425 12.5012L10.6843 17.8798L11.4685 19.4355C11.5243 19.5341 11.5971 19.6198 11.6914 19.6584C11.94 19.7869 12.2528 19.6884 12.3771 19.4355L13.1657 17.9098L13.1785 17.8669L11.5928 15.7112C11.5628 15.7026 11.55 15.6855 11.5285 15.6641L11.5114 15.6426ZM16.7485 9.69408L17.19 9.09408L18.8143 6.85693H18.8571L15.5228 13.2812L15.0814 14.1255L13.41 17.3655L12.21 15.7369C12.2528 15.7112 12.2957 15.6855 12.3257 15.6426L13.44 14.1426L14.0743 13.2941L16.7485 9.69408Z" fill="white"/>
</g>
<defs>
<linearGradient id="paint0_linear_31_19041" x1="4.46571" y1="4.16143" x2="29.2071" y2="32.58" gradientUnits="userSpaceOnUse">
<stop stop-color="#1A1E21"/>
<stop offset="1" stop-color="#06060A"/>
</linearGradient>
<clipPath id="clip0_31_19041">
<rect width="24" height="24" fill="white"/>
</clipPath>
</defs>
</svg>

<svg xmlns="http://www.w3.org/2000/svg" width="24" height="24" fill="none" viewBox="0 0 24 24"><g clip-path="url(#a)"><path fill="url(#b)" d="M0 0h24v24H0z"/><path fill="#fff" d="M9.086 11.554c.137-1.033.45-2.074 1.375-2.657.284-.182.607-.294.943-.326h5.413l.759-1.045a.415.415 0 0 0-.33-.67H6.506a.38.38 0 0 0-.245.087.42.42 0 0 0-.085.583l2.91 4.045h3.154c.21.013.416.043.608.112l.15.034c.163.03.313.06.43.184a.8.8 0 0 1 .15.322c.03.098.03.21.03.321 0 .12-.014.236-.027.351l-.017.163 2.469-3.201h-4.136c-.291 0-.523-.497-.523-.789V9a1.8 1.8 0 0 0-.758.137 1.96 1.96 0 0 0-.716.531 3.9 3.9 0 0 0-.814 1.886m3.154.874h-2.4l1.037 1.475.013.017q-.002.006.008.013l.005.012.167.223.497.682.082.085a.416.416 0 0 0 .578-.085l.523-.707.634-.849.167-.223a7 7 0 0 0-.055-.527.7.7 0 0 0-.236-.471.83.83 0 0 0-.48-.172h-.017v.073c0 .291-.232.454-.523.454m-.729 3.215L9.25 12.5l-.772-1.071L5.17 6.857h-.026l2.301 4.573.54 1.071 2.7 5.379.785 1.556a.5.5 0 0 0 .222.222c.249.129.562.03.686-.223l.789-1.525.012-.043-1.585-2.156c-.03-.008-.043-.026-.065-.047zm5.238-5.949.441-.6 1.624-2.237h.043l-3.334 6.424-.442.845-1.671 3.24-1.2-1.63c.043-.025.086-.05.116-.093l1.114-1.5.634-.849z"/></g><defs><linearGradient id="b" x1="4.466" x2="29.207" y1="4.161" y2="32.58" gradientUnits="userSpaceOnUse"><stop stop-color="#1A1E21"/><stop offset="1" stop-color="#06060A"/></linearGradient><clipPath id="a"><path fill="#fff" d="M0 0h24v24H0z"/></clipPath></defs></svg>
